dynamics/images/force1.svg

<svg xmlns="http://www.w3.org/2000/svg" xmlns:xlink="http://www.w3.org/1999/xlink" x="0" y="0" width="245.6" height="52.3875" style="
        width:245.6px;
        height:52.3875px;
        background: transparent;
        fill: none;
">
        <svg xmlns="http://www.w3.org/2000/svg"/>
        
        <svg xmlns="http://www.w3.org/2000/svg" class="role-diagram-draw-area" style="overflow: visible;"><g class="shapes-region" style="stroke: black; fill: none;"><g class="composite-shape"><defs><!-- react-text: 5212 --> <!-- /react-text --><pattern id="_pgf2x8hf4wgvdg-full-view" x="0" y="0" width="11.313708498984761" height="11.313708498984761" patternTransform="rotate(45,0,0)" patternUnits="userSpaceOnUse"><path d="M0,0 L0,11.313708498984761" style="stroke: rgb(0, 0, 0); stroke-opacity: 1; stroke-width: 1; fill: none;"/><path d="M5.656854249492381,0 L5.656854249492381,11.313708498984761" style="stroke: rgb(0, 0, 0); stroke-opacity: 1; stroke-width: 1; fill: none;"/><path d="M11.313708498984761,0 L11.313708498984761,11.313708498984761" style="stroke: rgb(0, 0, 0); stroke-opacity: 1; stroke-width: 1; fill: none;"/></pattern></defs><path class="real" d=" M21,12 L48.8,12 L48.8,39.25 L21,39.25 Z" style="stroke-width: 1; stroke: rgb(0, 0, 0); fill: url(&quot;#_pgf2x8hf4wgvdg-full-view&quot;); fill-opacity: 1;"/></g><g class="arrow-line"><path class="connection real" stroke-dasharray="" d="  M48.5,24.8 L90.12,24.8" style="stroke: rgb(153, 0, 0); stroke-width: 1; fill: none; fill-opacity: 1; stroke-opacity: 1;"/><g stroke="none" transform="matrix(-1,1.2246467991473532e-16,-1.2246467991473532e-16,-1,93.1199951171875,24.799999999999994)" style="stroke: none; stroke-width: 1; fill: rgb(153, 0, 0);" fill="rgb(153,0,0)" fill-opacity="1"><path d=" M10.72,-5.15 L0,0 L10.72,5.15 L7.12,0 Z"/></g></g><g class="composite-shape"><defs><!-- react-text: 7893 --> <!-- /react-text --><pattern id="_pgf94e8ns0oedg-full-view" x="0" y="0" width="11.313708498984761" height="11.313708498984761" patternTransform="rotate(45,0,0)" patternUnits="userSpaceOnUse"><path d="M0,0 L0,11.313708498984761" style="stroke: rgb(0, 0, 0); stroke-opacity: 1; stroke-width: 1; fill: none;"/><path d="M5.656854249492381,0 L5.656854249492381,11.313708498984761" style="stroke: rgb(0, 0, 0); stroke-opacity: 1; stroke-width: 1; fill: none;"/><path d="M11.313708498984761,0 L11.313708498984761,11.313708498984761" style="stroke: rgb(0, 0, 0); stroke-opacity: 1; stroke-width: 1; fill: none;"/></pattern></defs><path class="real" d=" M194.9,12 L222.7,12 L222.7,39.25 L194.9,39.25 Z" style="stroke-width: 1; stroke: rgb(0, 0, 0); fill: url(&quot;#_pgf94e8ns0oedg-full-view&quot;); fill-opacity: 1;"/></g><g class="arrow-line"><path class="connection real" stroke-dasharray="" d="  M150,24.83 L191.62,24.83" style="stroke: rgb(153, 0, 0); stroke-opacity: 1; stroke-width: 1; fill: none; fill-opacity: 1;"/><g stroke="none" fill="rgb(153,0,0)" fill-opacity="1" transform="matrix(-1,1.2246467991473532e-16,-1.2246467991473532e-16,-1,194.62000122070322,24.82744907377626)" style="stroke: none; fill: rgb(153, 0, 0); stroke-width: 1;"><path d=" M10.72,-5.15 L0,0 L10.72,5.15 L7.12,0 Z"/></g></g><g/></g><g/><g/><g/></svg>
        <svg xmlns="http://www.w3.org/2000/svg" xmlns:xlink="http://www.w3.org/1999/xlink" width="244" height="50.78750000000001" style="width:244px;height:50.78750000000001px;font-family:Asana-Math, Asana;background:transparent;"></svg>
</svg>

<svg xmlns="http://www.w3.org/2000/svg" width="245.6" height="52.388" style="width:245.6px;height:52.3875px;background:0 0;fill:none"><svg xmlns="http://www.w3.org/2000/svg"/><svg xmlns="http://www.w3.org/2000/svg" class="role-diagram-draw-area" style="overflow:visible"><g class="shapes-region" style="stroke:#000;fill:none"><g class="composite-shape"><defs><pattern id="_pgf2x8hf4wgvdg-full-view" width="11.314" height="11.314" x="0" y="0" patternTransform="rotate(45 0 0)" patternUnits="userSpaceOnUse"><path d="M0 0v11.314M5.657 0v11.314M11.314 0v11.314" style="stroke:#000;stroke-opacity:1;stroke-width:1;fill:none"/></pattern></defs><path d="M21 12h27.8v27.25H21Z" class="real" style="stroke-width:1;stroke:#000;fill:url(#_pgf2x8hf4wgvdg-full-view);fill-opacity:1"/></g><g class="arrow-line"><path d="M48.5 24.8h41.62" class="connection real" style="stroke:#900;stroke-width:1;fill:none;fill-opacity:1;stroke-opacity:1"/><path fill="#900" stroke="none" d="M10.72-5.15 0 0l10.72 5.15L7.12 0Z" style="stroke:none;stroke-width:1;fill:#900" transform="matrix(-1 0 0 -1 93.12 24.8)"/></g><g class="composite-shape"><defs><pattern id="_pgf94e8ns0oedg-full-view" width="11.314" height="11.314" x="0" y="0" patternTransform="rotate(45 0 0)" patternUnits="userSpaceOnUse"><path d="M0 0v11.314M5.657 0v11.314M11.314 0v11.314" style="stroke:#000;stroke-opacity:1;stroke-width:1;fill:none"/></pattern></defs><path d="M194.9 12h27.8v27.25h-27.8Z" class="real" style="stroke-width:1;stroke:#000;fill:url(#_pgf94e8ns0oedg-full-view);fill-opacity:1"/></g><g class="arrow-line"><path d="M150 24.83h41.62" class="connection real" style="stroke:#900;stroke-opacity:1;stroke-width:1;fill:none;fill-opacity:1"/><path fill="#900" stroke="none" d="M10.72-5.15 0 0l10.72 5.15L7.12 0Z" style="stroke:none;fill:#900;stroke-width:1" transform="matrix(-1 0 0 -1 194.62 24.827)"/></g></g></svg><svg xmlns="http://www.w3.org/2000/svg" xmlns:xlink="http://www.w3.org/1999/xlink" width="244" height="50.788" style="width:244px;height:50.78750000000001px;font-family:Asana-Math,Asana;background:0 0"/></svg>
